!!!COM: Bach, Johann Sebastian
!!!CDT: 1685/3//-1750/7/28/
!!!OTL@@DE: Was frag' ich nach der Welt
!!!AGN: 4-Part Chorale
!!!SCT: BH 255
!!!SCT: BWV 64
**harm	**root	**kern	**kern	**kern	**kern
!	!	!bass	!tenor	!alto	!soprno
*	*Iorgan	*Iorgan	*Iorgan	*Iorgan	*Iorgan
*M4/4	*M4/4	*M4/4	*M4/4	*M4/4	*M4/4
*met(c)	*met(c)	*met(c)	*met(c)	*met(c)	*met(c)
*MM60	*MM60	*MM60	*MM60	*MM60	*MM60
*k[f#c#g#d#a#e#b#]	*k[f#c#g#d#a#e#b#]	*k[f#c#g#d#a#e#b#]	*k[f#c#g#d#a#e#b#]	*k[f#c#g#d#a#e#b#]	*k[f#c#g#d#a#e#b#]
*C#:	*C#:	*C#:	*C#:	*C#:	*C#:
Vb	4AA	4BB#	4G#	4d#	4g#
=1	=1	=1	=1	=1	=1
I	4DD	8C#	4G#	4c#	4e#
.	.	8BB#	.	.	.
I	4DD	8C#	4G#	8e#	4c#
.	.	8D#	.	8d#	.
Ib	4DD	8E#	4G#	4c#	4g#
.	.	8D#	.	.	.
Ib	4DD	8E#	4c#	8g#	4g#
.	.	8C#	.	8e#	.
=2	=2	=2	=2	=2	=2
IV;	2.GG;	2.F#;	2.c#;	2.f#;	2.a#;
IV	4GG	4FF#	4F#	4c#	4a#
=3	=3	=3	=3	=3	=3
V7	4AA	8GG#	4.F#	8B#	4d#
.	.	8FF#	.	8c#	.
V7	4AA	8GG#	.	8B#	4d#
.	.	8AA#	8E#	8A#	.
Vb	4AA	8BB#	4D#	4G#	4g#
.	.	8AA#	.	.	.
V7b	4AA	8BB#	4G#	4d#	4f#
.	.	8GG#	.	.	.
=4	=4	=4	=4	=4	=4
I	4DD	4C#	4G#	4c#	4e#
I;	4DD;	4C#;	4E#;	4G#;	4c#;
r	4r	4r	4r	4r	4r
Ib	4DD	4E#	4G#	4c#	4g#
=5	=5	=5	=5	=5	=5
IV	4GG	4F#	8F#	4c#	4a#
.	.	.	8G#	.	.
ii	4EE	4D#	4A#	4f#	4a#
Ic	4DD	4G#	8B#	4e#	4g#
.	.	.	8c#	.	.
V7	4AA	4GG#	8c#	4d#	4f#
.	.	.	8B#	.	.
=6	=6	=6	=6	=6	=6
I;	2.DD;	2.C#;	2.c#;	2.G#;	2.e#;
V	4AA	4GG#	4B#	4B#	4d#
=7	=7	=7	=7	=7	=7
I	4DD	8C#	4G#	4c#	4e#
.	.	8BB#	.	.	.
V7d/V	4EE	8C#	4A#	4d#	4f##
.	.	8AA#	.	.	.
Vb	4.AA	8BB#	4.G#	4.d#	4.g#
.	.	8AA#	.	.	.
.	.	8BB#	.	.	.
vib	8BB	8C#	8c#	8e#	8a#
=8	=8	=8	=8	=8	=8
V/V	2EE	4D#	2A#	2d#	2f##
.	.	4DD#	.	.	.
V;	4AA;	4GG#;	4B#;	4d#;	4g#;
V	4AA	4GG#	4B#	4d#	4g#
!!linebreak: 2
=9	=9	=9	=9	=9	=9
I	4DD	8C#	4c#	8e#	4g#
.	.	8BB#	.	8d#	.
I	4DD	8C#	4c#	8e#	4g#
.	.	8D#	.	8f#	.
Ib	4DD	8E#	4c#	8g#	4cc#
.	.	8D#	.	8f#	.
I7b	4DD	8E#	4c#	8g#	4b
.	.	8C#	.	8e#	.
=10	=10	=10	=10	=10	=10
IV;	2.GG;	2.F#;	2.c#;	2.f#;	2.a#;
Vb/II	4BB	4C##	8A#	4e#	4a#
.	.	.	8G#	.	.
=11	=11	=11	=11	=11	=11
II	4EE	8D#	8F##	4d#	4a#
.	.	8C##	8E#	.	.
II	4EE	8D#	8F##	4d#	4a#
.	.	8E#	8G#	.	.
IIb	4EE	8F##	8A#	4d#	4dd#
.	.	8E#	8G#	.	.
II7b	4EE	8F##	8A#	4d#	4cc#
.	.	8D#	8F##	.	.
=12	=12	=12	=12	=12	=12
V;	2.AA;	2.G#;	2.G#;	2.d#;	2.b#
Ib	4DD	4E#	4c#	4c#	4g#
=13	=13	=13	=13	=13	=13
IV	4GG	8F#	4c#	4f#	4a#
.	.	8G#	.	.	.
Ib	4DD	8F#	4c#	4g#	4g#
.	.	8E#	.	.	.
IV	4GG	8F#	4c#	4f#	4a#
.	.	8E#	.	.	.
viioD7c/vi	4AA#	8F#	4d#	8a#	4b#
.	.	8D#	.	8g##	.
=14	=14	=14	=14	=14	=14
vi;	2.BB;	2.A#;	2.e#;	2.a#;	2.cc#;
Vb	4AA	4BB#	4d#	8g#	4g#
.	.	.	.	8f#	.
=15	=15	=15	=15	=15	=15
I	4DD	8C#	4c#	4e#	4g#
.	.	8D#	.	.	.
iii7	4FF#	8E#	4G#	8d#	8f#
.	.	8F#	.	8c#	8e#
V	4AA	4G#	8G#	4c#	4d#
.	.	.	8A#	.	.
V	4AA	4GG#	8G#	4B#	4d#
.	.	.	8F#	.	.
=16	=16	=16	=16	=16	=16
I;	2.DD;	2.C#;	2.E#;	2.G#;	2.c#;
==	==	==	==	==	==
*-	*-	*-	*-	*-	*-
!!chor2scor: -l 2 -s 0.6 -o %b.pmx
!!!YEC: Copyright 1994, David Huron
!!!YEC: Changes/Additions 2001 by Craig Stuart Sapp
!!!YEN: United States of America
!!!SMA: 371 Bach Chorales, edited by Ludwig Erk, C.F. Peters
!!!PDT: 1850, 1865
!!!ONB: Harmony and Root analysis done manually
